X:1
T:Smokin' Bracken
C: Arranged, Scott Armit
R:March
M:3/4
L:1/8
Q:1/4=86
K:HP
P:1
|: AA c3/A/ c2 | AA c3/A/ c/d/e | AA c3/A/ c2 | f3/e/ B3/c/ eB :|!
P:2
|: a3/f/ g3/d/ eA | a3/f/ g3/d/ e/f/g | af gd eA |1 f3/e/ B3/c/ eB :|2
M: 5/4
f3/e/ B3/c/ e4 Be |!
